lib/healthicons/icons/solid/devices/ppe_gown.svg

<svg fill="none" height="48" viewBox="0 0 48 48" width="48" xmlns="http://www.w3.org/2000/svg"><path clip-rule="evenodd" d="m30.3629 4c2.5778 0 4.7331 1.95978 4.9775 4.52595l1.4466 15.18965c.0849.8914-.2279 1.7218-.787 2.3246v3.9598c0 .5523-.4477 1-1 1h-2.9999v12c0 .5523-.4477 1-1 1h-14c-.5523 0-1-.4477-1-1v-12h-3.0001c-.5523 0-1-.4477-1-1v-3.96c-.559-.6028-.8718-1.4331-.7869-2.3244l1.4467-15.18965c.2443-2.56618 2.3996-4.52595 4.9774-4.52595h3.3628c0 1.65685 1.3432 3 3 3 1.6569 0 3-1.34315 3-3zm3.6371 25h-1.9999v-2h1.8005.1994zm-19.8004-2h1.8004v2h-2v-2zm2.8004-2h14v-2h-14z" fill="#333" fill-rule="evenodd"/></svg>

<svg width="48" height="48" viewBox="0 0 48 48" fill="none" xmlns="http://www.w3.org/2000/svg">
<path fill-rule="evenodd" clip-rule="evenodd" d="M30.3629 4C32.9407 4 35.096 5.95978 35.3404 8.52595L36.787 23.7156C36.8719 24.607 36.5591 25.4374 36 26.0402V30C36 30.5523 35.5523 31 35 31H32.0001V43C32.0001 43.5523 31.5524 44 31.0001 44H17.0001C16.4478 44 16.0001 43.5523 16.0001 43V31H13C12.4477 31 12 30.5523 12 30V26.04C11.441 25.4372 11.1282 24.6069 11.2131 23.7156L12.6598 8.52595C12.9041 5.95977 15.0594 4 17.6372 4H21C21 5.65685 22.3432 7 24 7C25.6569 7 27 5.65685 27 4H30.3629ZM34 29H32.0001V27H33.8006H34V29ZM14.1996 27H16V29H14V27H14.1996ZM17 25H31V23H17V25Z" fill="#333333"/>
</svg>
